X:295
%%etbk:tnset id:91,pos:3,rep:3x,ant:
%%etbk:wsite http://www.thesession.org/tunes/display/656
%%etbk:pldat 2013-10-21T18:19,2013-05-22T16:10
T: Micho Russel's
Z: Piano Box Version by Martin Fleischmann
H: Created 2013-02-19 /  Last Modified 2013-02-19
M: 6/8
L: 1/8
R: jig
K: Gmaj
G,|: "G"!1!G,!2!B,!4!D !2!E{G}ED | "D"!2!EG!3!F "G"!4!!5!G2 G, | !1!G,!2!B,!4!D !1!D!5!cB | "D"!3!A!1!G!3!F "G"!4!!5!G2G, |
"G"!1!G,!2!B,!4!D !2!E{G}ED | !2!E!4!G!3!F !1!GAB | !5!d!1!Gd !3!BdB |1 "D"!2!A!1!G!3!F "G"!4!G2G,:|2 "D"!2!A!1!G!2!F "G"!1!G!2!B!4!d ||
|: "C"!2!ege "G"!1!de!1!d | !2!B!1!GG !1!G!2!B!4!d | "C"!2!ege "G"!1!de!1!d | !3!BAG "D"!2!A2!1!A |
 "C"!2!efe "G"!1!de!1!d | !2!B!1!GG !1!GA!3!B | "C"!4!c2c "G"!3!BdB |1 "D"!2!A!1!G!2!F "G"!1!G!2!B!4!d:|2 "D"!2!A!1!G!3!F "G"!4!!5!G2G,||


